rospo-icon-theme-classic-common/22x22/places/folder-black-development.svg

<svg height="22" width="22" xmlns="http://www.w3.org/2000/svg"><rect height="12" opacity=".2" rx="1" width="20" x="1" y="8.5"/><path d="m1 16c0 .554.446 1 1 1h18c .554 0 1-.446 1-1v-11c0-.554-.446-1-1-1h-10v-1c0-.554-.446-1-1-1h-7c-.554 0-1 .446-1 1" fill="#3f3f3f"/><rect height="12" opacity=".2" rx="1" width="20" x="1" y="7.5"/><rect fill="#dcdcdc" height="8" rx="1" width="16" x="3" y="6"/><rect fill="#4f4f4f" height="12" rx="1" width="20" x="1" y="8"/><path d="m2 2c-.554 0-1 .446-1 1v .5c0-.554.446-1 1-1h7c .554 0 1 .446 1 1v-.5c0-.554-.446-1-1-1zm8 2v .5h10c .554 0 1 .446 1 1v-.5c0-.554-.446-1-1-1z" fill="#fff" opacity=".1"/><path d="m10 10v1.174a3 3 0 0 0 -.2912.121l-.8301-.83-1.4141 1.414.8301.83a3 3 0 0 0 -.1191.291h-1.1756v2h1.1736a3 3 0 0 0  .1211.291l-.8301.83 1.4141 1.414.8301-.83a3 3 0 0 0  .2912.119v1.176h2v-1.174a3 3 0 0 0  .291-.121l.83.83 1.414-1.414-.83-.83a3 3 0 0 0  .119-.291h1.176v-2h-1.174a3 3 0 0 0 -.121-.291l.83-.83-1.414-1.414-.83.83a3 3 0 0 0 -.291-.119v-1.176zm1 2a2 2 0 0 1 2 2 2 2 0 0 1 -2 2 2 2 0 0 1 -2-2 2 2 0 0 1 2-2z" fill="#c2c2c2"/></svg>

<svg xmlns="http://www.w3.org/2000/svg" width="22" height="22" version="1">
 <rect style="opacity:0.2" width="20" height="12" x="1" y="8.5" rx="1" ry="1"/>
 <path style="fill:#3f3f3f" d="M 1,16 C 1,16.554 1.446,17 2,17 H 20 C 20.554,17 21,16.554 21,16 V 5 C 21,4.446 20.554,4 20,4 H 10 V 3 C 10,2.446 9.554,2 9,2 H 2 C 1.446,2 1,2.446 1,3"/>
 <rect style="opacity:0.2" width="20" height="12" x="1" y="7.5" rx="1" ry="1"/>
 <rect style="fill:#dcdcdc" width="16" height="8" x="3" y="6" rx="1" ry="1"/>
 <rect style="fill:#4f4f4f" width="20" height="12" x="1" y="8" rx="1" ry="1"/>
 <path style="opacity:0.1;fill:#ffffff" d="M 2,2 C 1.446,2 1,2.446 1,3 V 3.5 C 1,2.946 1.446,2.5 2,2.5 H 9 C 9.554,2.5 10,2.946 10,3.5 V 3 C 10,2.446 9.554,2 9,2 Z M 10,4 V 4.5 H 20 C 20.554,4.5 21,4.946 21,5.5 V 5 C 21,4.446 20.554,4 20,4 Z"/>
 <path style="fill:#c2c2c2" d="M 10,10 V 11.174 A 3,3 0 0 0 9.7088,11.295 L 8.8787,10.465 7.4646,11.879 8.2947,12.709 A 3,3 0 0 0 8.1756,13 H 7 V 15 H 8.1736 A 3,3 0 0 0 8.2947,15.291 L 7.4646,16.121 8.8787,17.535 9.7088,16.705 A 3,3 0 0 0 10,16.824 V 18 H 12 V 16.826 A 3,3 0 0 0 12.291,16.705 L 13.121,17.535 14.535,16.121 13.705,15.291 A 3,3 0 0 0 13.824,15 H 15 V 13 H 13.826 A 3,3 0 0 0 13.705,12.709 L 14.535,11.879 13.121,10.465 12.291,11.295 A 3,3 0 0 0 12,11.176 V 10 H 10 Z M 11,12 A 2,2 0 0 1 13,14 2,2 0 0 1 11,16 2,2 0 0 1 9,14 2,2 0 0 1 11,12 Z"/>
</svg>
